svg/wall_fire.svg

<svg xmlns="http://www.w3.org/2000/svg" viewBox="0 0 24 24"><path d="m22.14 15.34-.02.01c.23.28.43.59.58.92l.09.19c.71 1.69.21 3.64-1.1 4.86-1.19 1.09-2.85 1.38-4.39 1.18-1.46-.18-2.8-1.1-3.57-2.37-.23-.39-.43-.83-.53-1.28-.13-.35-.17-.73-.2-1.1-.09-1.6.55-3.3 1.76-4.3-.55 1.21-.42 2.72.39 3.77l.11.13c.14.12.31.15.47.09.15-.06.27-.21.27-.37l-.07-.24c-.88-2.33-.14-5.03 1.73-6.56.51-.42 1.14-.8 1.8-.97-.68 1.36-.46 3.14.63 4.2.46.5 1.02.79 1.49 1.23zM19.86 20l-.01-.03c.45-.39.7-1.06.68-1.66L20.5 18c-.2-1-1.07-1.34-1.63-2.07l-.43-.78c-.22.5-.24.97-.15 1.51.1.57.32 1.06.21 1.65-.16.65-.67 1.3-1.56 1.51.5.49 1.31.88 2.12.6.26-.07.59-.26.8-.42M3 16h8.06L11 17c0 1.41.36 2.73 1 3.88V21H3zm-1-6h6v5H2zm7 0h6v.07A8.03 8.03 0 0 0 11.25 15H9zM3 4h8v5H3zm9 0h9v5h-9z"/></svg>

<svg xmlns="http://www.w3.org/2000/svg" id="mdi-wall-fire" viewBox="0 0 24 24"><path d="M22.14 15.34L22.12 15.35C22.35 15.63 22.55 15.94 22.7 16.27L22.79 16.46C23.5 18.15 23 20.1 21.69 21.32C20.5 22.41 18.84 22.7 17.3 22.5C15.84 22.32 14.5 21.4 13.73 20.13C13.5 19.74 13.3 19.3 13.2 18.85C13.07 18.5 13.03 18.12 13 17.75C12.91 16.15 13.55 14.45 14.76 13.45C14.21 14.66 14.34 16.17 15.15 17.22L15.26 17.35C15.4 17.47 15.57 17.5 15.73 17.44C15.88 17.38 16 17.23 16 17.07L15.93 16.83C15.05 14.5 15.79 11.8 17.66 10.27C18.17 9.85 18.8 9.47 19.46 9.3C18.78 10.66 19 12.44 20.09 13.5C20.55 14 21.11 14.29 21.58 14.73L22.14 15.34M19.86 20L19.85 19.97C20.3 19.58 20.55 18.91 20.53 18.31L20.5 18C20.3 17 19.43 16.66 18.87 15.93L18.44 15.15C18.22 15.65 18.2 16.12 18.29 16.66C18.39 17.23 18.61 17.72 18.5 18.31C18.34 18.96 17.83 19.61 16.94 19.82C17.44 20.31 18.25 20.7 19.06 20.42C19.32 20.35 19.65 20.16 19.86 20M3 16H11.06L11 17C11 18.41 11.36 19.73 12 20.88V21H3V16M2 10H8V15H2V10M9 10H15V10.07C13.17 11.13 11.79 12.9 11.25 15H9V10M3 4H11V9H3V4M12 4H21V9H12V4Z" /></svg>
